src/lib/packages/icons/src/assets/filled/tv-retro.svg

<svg width="24" height="24" viewBox="0 0 24 24" fill="none" xmlns="http://www.w3.org/2000/svg">
<path fill-rule="evenodd" clip-rule="evenodd" d="M18 6.99997H13.0601L16.53 3.53C16.82 3.24 16.82 2.75994 16.53 2.46994C16.24 2.17994 15.76 2.17994 15.47 2.46994L12 5.93991L8.53003 2.46994C8.24003 2.17994 7.75997 2.17994 7.46997 2.46994C7.17997 2.75994 7.17997 3.24 7.46997 3.53L10.9399 6.99997H6C4 6.99997 3 7.99997 3 9.99997V18C3 20 4 21 6 21H18C20 21 21 20 21 18V9.99997C21 7.99997 20 6.99997 18 6.99997ZM15 16.5C15 17.5 14.5 18 13.5 18H7.5C6.5 18 6 17.5 6 16.5V11.5C6 10.5 6.5 9.99997 7.5 9.99997H13.5C14.5 9.99997 15 10.5 15 11.5V16.5ZM18 15C17.448 15 17 14.552 17 14C17 13.448 17.448 13 18 13C18.552 13 19 13.448 19 14C19 14.552 18.552 15 18 15ZM18 12C17.448 12 17 11.552 17 11C17 10.448 17.448 9.99997 18 9.99997C18.552 9.99997 19 10.448 19 11C19 11.552 18.552 12 18 12Z" fill="currentColor"/>
</svg>

<svg xmlns="http://www.w3.org/2000/svg" width="24" height="24" fill="none"><path fill="currentColor" fill-rule="evenodd" d="M18 7h-4.94l3.47-3.47c.29-.29.29-.77 0-1.06a.754.754 0 0 0-1.06 0L12 5.94 8.53 2.47a.755.755 0 0 0-1.06 0c-.29.29-.29.77 0 1.06L10.94 7H6c-2 0-3 1-3 3v8c0 2 1 3 3 3h12c2 0 3-1 3-3v-8c0-2-1-3-3-3Zm-3 9.5c0 1-.5 1.5-1.5 1.5h-6c-1 0-1.5-.5-1.5-1.5v-5c0-1 .5-1.5 1.5-1.5h6c1 0 1.5.5 1.5 1.5v5Zm3-1.5a1 1 0 1 1 0-2 1 1 0 0 1 0 2Zm0-3a1 1 0 1 1 0-2 1 1 0 0 1 0 2Z" clip-rule="evenodd"/></svg>
